icons/svgs/bus-simple-solid.svg

<svg width="24" height="24" viewBox="0 0 24 24" fill="none" xmlns="http://www.w3.org/2000/svg">
<path d="M12 2C16.8438 2 20.75 3.40625 20.75 5.125V5.75V18.25C20.75 18.9531 20.1641 19.5 19.5 19.5V20.75C19.5 21.4531 18.9141 22 18.25 22H17C16.2969 22 15.75 21.4531 15.75 20.75V19.5H8.25V20.75C8.25 21.4531 7.66406 22 7 22H5.75C5.04688 22 4.5 21.4531 4.5 20.75V19.5C3.79688 19.5 3.25 18.9531 3.25 18.25V5.75V5.125C3.25 3.40625 7.11719 2 12 2ZM5.75 7V12C5.75 12.7031 6.29688 13.25 7 13.25H17C17.6641 13.25 18.25 12.7031 18.25 12V7C18.25 6.33594 17.6641 5.75 17 5.75H7C6.29688 5.75 5.75 6.33594 5.75 7ZM6.375 17.625C7.03906 17.625 7.625 17.0781 7.625 16.375C7.625 15.7109 7.03906 15.125 6.375 15.125C5.67188 15.125 5.125 15.7109 5.125 16.375C5.125 17.0781 5.67188 17.625 6.375 17.625ZM17.625 17.625C18.2891 17.625 18.875 17.0781 18.875 16.375C18.875 15.7109 18.2891 15.125 17.625 15.125C16.9219 15.125 16.375 15.7109 16.375 16.375C16.375 17.0781 16.9219 17.625 17.625 17.625Z" fill="black"/>
</svg>

<svg xmlns="http://www.w3.org/2000/svg" width="24" height="24" fill="currentColor" class="icon-bus-simple-solid" viewBox="0 0 24 24">
  <mask id="a" width="18" height="20" x="3" y="2" maskUnits="userSpaceOnUse" style="mask-type:alpha">
    <path d="M12 2c4.844 0 8.75 1.406 8.75 3.125V18.25c0 .703-.586 1.25-1.25 1.25v1.25c0 .703-.586 1.25-1.25 1.25H17c-.703 0-1.25-.547-1.25-1.25V19.5h-7.5v1.25C8.25 21.453 7.664 22 7 22H5.75c-.703 0-1.25-.547-1.25-1.25V19.5c-.703 0-1.25-.547-1.25-1.25V5.125C3.25 3.406 7.117 2 12 2M5.75 7v5c0 .703.547 1.25 1.25 1.25h10c.664 0 1.25-.547 1.25-1.25V7c0-.664-.586-1.25-1.25-1.25H7c-.703 0-1.25.586-1.25 1.25m.625 10.625c.664 0 1.25-.547 1.25-1.25 0-.664-.586-1.25-1.25-1.25-.703 0-1.25.586-1.25 1.25 0 .703.547 1.25 1.25 1.25m11.25 0c.664 0 1.25-.547 1.25-1.25 0-.664-.586-1.25-1.25-1.25-.703 0-1.25.586-1.25 1.25 0 .703.547 1.25 1.25 1.25"/>
  </mask>
  <g mask="url(#a)">
    <path d="M0 0h24v24H0z"/>
  </g>
</svg>
